X:1
T:Constant Sorrow
M:6/8
L:1/8
K:G
 EE| B3 GAB| E D2- DE E|
M:5/8
 B3/2- A/2 GA B|
M:6/8
 E3 B3/2 A/2 B| E3 DGG| B, D2 EGF| E3 DB,D| E3 z||
